configs/network-icons/arbitrum-sepolia-dark.svg

<svg width="30" height="30" viewBox="0 0 30 30" fill="none" xmlns="http://www.w3.org/2000/svg">
<path d="M3.00977 9.12302V20.8912C3.00977 21.6378 3.40796 22.3347 4.06215 22.7044L14.2447 28.585C14.8917 28.9618 15.6952 28.9618 16.3423 28.585L26.5319 22.7044C27.179 22.3276 27.5843 21.6378 27.5843 20.8912V9.12302C27.5843 8.3764 27.1861 7.67955 26.5319 7.30269L16.3423 1.42215C15.6952 1.04528 14.8917 1.04528 14.2447 1.42215L4.05504 7.30269C3.41507 7.67955 3.00977 8.36929 3.00977 9.12302Z" fill="#213147"/>
<path d="M17.5226 17.2861L16.065 21.2681C16.0223 21.3747 16.0223 21.5027 16.065 21.6094L18.5608 28.4641L21.4549 26.7931L17.9848 17.279C17.9066 17.0657 17.6009 17.0657 17.5226 17.2861Z" fill="#12AAFF"/>
<path d="M20.4309 10.5807C20.3527 10.3603 20.0469 10.3603 19.9616 10.5807L18.5039 14.5627C18.4613 14.6765 18.4613 14.7974 18.5039 14.904L22.5997 26.1318L25.4937 24.4608L20.4309 10.5807Z" fill="#12AAFF"/>
<path d="M15.297 1.85589C15.3681 1.85589 15.4392 1.87722 15.5032 1.91278L26.5248 8.27684C26.6528 8.34795 26.731 8.48305 26.731 8.63238V21.3605C26.731 21.5098 26.6528 21.6449 26.5248 21.716L15.5032 28.0872C15.4392 28.1228 15.3681 28.1441 15.297 28.1441C15.2259 28.1441 15.1548 28.1228 15.0908 28.0872L4.06921 21.7232C3.94122 21.6521 3.863 21.5169 3.863 21.3676V8.63238C3.863 8.48305 3.94122 8.34795 4.06921 8.27684L15.0908 1.91278C15.1548 1.87722 15.2259 1.85589 15.297 1.85589ZM15.297 0C14.9059 0 14.5077 0.10666 14.1593 0.30576L3.13771 6.66983C2.44086 7.07514 2 7.82176 2 8.63238V21.3605C2 22.1711 2.43375 22.9249 3.13771 23.3302L14.1593 29.6942C14.5077 29.9004 14.8988 30 15.297 30C15.6952 30 16.0863 29.8933 16.4347 29.6942L27.4563 23.3302C28.1602 22.9249 28.594 22.1782 28.594 21.3605V8.63238C28.594 7.82176 28.1602 7.06803 27.4563 6.66272L16.4347 0.30576C16.0792 0.10666 15.6881 0 15.297 0Z" fill="#9DCCED"/>
<path d="M8.00854 26.1454L9.02513 23.3728L11.0583 25.0648L9.1602 26.8065L8.00854 26.1454Z" fill="#213147"/>
<path d="M14.3655 7.72931H11.571C11.3648 7.72931 11.1728 7.8573 11.1017 8.0564L5.1145 24.4821L8.00855 26.1531L14.6073 8.06351C14.6642 7.89997 14.5433 7.72931 14.3655 7.72931Z" fill="white"/>
<path d="M19.2577 7.72931H16.4632C16.257 7.72931 16.065 7.8573 15.9939 8.0564L9.16052 26.8073L12.0546 28.4783L19.4924 8.06351C19.5564 7.89997 19.4284 7.72931 19.2577 7.72931Z" fill="white"/>
</svg>

<svg xmlns="http://www.w3.org/2000/svg" fill="none" viewBox="0 0 30 30">
  <path fill="#213147" d="M3.01 9.123v11.768a2.08 2.08 0 0 0 1.052 1.813l10.183 5.881c.647.377 1.45.377 2.097 0l10.19-5.88a2.106 2.106 0 0 0 1.052-1.814V9.123c0-.747-.398-1.443-1.052-1.82l-10.19-5.88a2.087 2.087 0 0 0-2.097 0l-10.19 5.88a2.117 2.117 0 0 0-1.045 1.82Z"/>
  <path fill="#12AAFF" d="m17.523 17.286-1.458 3.982a.47.47 0 0 0 0 .341l2.496 6.855 2.894-1.67-3.47-9.515c-.078-.213-.384-.213-.462.007Zm2.907-6.706c-.077-.22-.383-.22-.468 0l-1.458 3.983a.472.472 0 0 0 0 .341L22.6 26.132l2.894-1.671-5.063-13.88Z"/>
  <path fill="#9DCCED" d="M15.297 1.856c.071 0 .142.021.206.057l11.022 6.364a.404.404 0 0 1 .206.355V21.36c0 .15-.078.285-.206.356l-11.022 6.371a.428.428 0 0 1-.206.057.428.428 0 0 1-.206-.057L4.069 21.723a.404.404 0 0 1-.206-.355V8.632c0-.149.078-.284.206-.355l11.022-6.364a.428.428 0 0 1 .206-.057Zm0-1.856c-.391 0-.79.107-1.138.306L3.138 6.67A2.279 2.279 0 0 0 2 8.632V21.36c0 .811.434 1.565 1.138 1.97l11.021 6.364c.349.206.74.306 1.138.306.398 0 .79-.107 1.138-.306l11.021-6.364a2.267 2.267 0 0 0 1.138-1.97V8.632c0-.81-.434-1.564-1.138-1.97L16.435.307A2.333 2.333 0 0 0 15.297 0Z"/>
  <path fill="#213147" d="m8.009 26.145 1.016-2.772 2.033 1.692-1.898 1.741-1.151-.66Z"/>
  <path fill="#fff" d="M14.366 7.73H11.57a.498.498 0 0 0-.47.326L5.115 24.482l2.895 1.671 6.598-18.09a.252.252 0 0 0-.241-.334Zm4.892 0h-2.795a.498.498 0 0 0-.47.326L9.162 26.807l2.894 1.671 7.437-20.414a.248.248 0 0 0-.234-.335Z"/>
</svg>
